assets/why-1-liquidity.svg

<svg height="250" viewBox="0 0 250 250" width="250" xmlns="http://www.w3.org/2000/svg" xmlns:xlink="http://www.w3.org/1999/xlink"><defs><linearGradient id="a" x1="39.120157%" x2="144.40376%" y1="10.302659%" y2="76.035256%"><stop offset="0" stop-color="#282138"/><stop offset="1" stop-color="#8c4398"/></linearGradient><path id="b" d="m130.643182 2.65685425 116.672619 116.67261875c3.124194 3.124194 3.124194 8.189514 0 11.313709l-116.672619 116.672619c-3.124195 3.124194-8.189515 3.124194-11.313709 0l-116.67261875-116.672619c-3.12419434-3.124195-3.12419434-8.189515 0-11.313709l116.67261875-116.67261875c3.124194-3.12419434 8.189514-3.12419434 11.313709 0z"/><linearGradient id="c" x1="45.134162%" x2="13.280368%" y1="44.760893%" y2="12.689442%"><stop offset="0" stop-opacity="0"/><stop offset="1"/></linearGradient><mask id="d" fill="#fff"><use fill="#fff" fill-rule="evenodd" xlink:href="#b"/></mask></defs><g fill="none" fill-rule="evenodd"><g><g fill-rule="nonzero"><use fill="#282138" xlink:href="#b"/><use fill="url(#a)" xlink:href="#b"/></g><path d="m300.765212 406.098673-250.7957697-251.198009 100.6617407-107.4859721 250.797567 251.1980091z" fill="url(#c)" mask="url(#d)" opacity=".6"/></g><g transform="translate(30 29)"><path d="m72.6667615 144.07619c-39.6601827 0-71.92307688-32.316209-71.92307688-72.0379151 0-39.7235071 32.26289418-72.03791471 71.92307688-72.03791471 39.6601825 0 71.9230765 32.31440761 71.9230765 72.03791471 0 39.7217061-32.262894 72.0379151-71.9230765 72.0379151" fill="#e6e6e6"/><g fill="#5a5564"><path d="m118.041772 30.2470995-3.998923 4.0053081c9.092875 9.9790521 14.645337 23.2430332 14.645337 37.7856872 0 14.5408531-5.552462 27.808436-14.645337 37.7874882l3.998923 4.003507c10.114183-11.009194 16.303164-25.6887203 16.303164-41.7909952 0-16.1040758-6.188981-30.7836019-16.303164-41.7909953"/><path d="m34.9404106 30.5963033c9.9631442-9.1073933 23.2077788-14.6687204 37.7254519-14.6687204 14.5194712 0 27.7641055 5.5613271 37.7272495 14.6687204l3.998924-4.005308c-10.991645-10.1303318-25.6459716-16.3291944-41.7261735-16.3291944-16.0784038 0-30.7327308 6.1988626-41.724375 16.3291944z"/><path d="m31.2915731 109.824863c-9.092875-9.9790526-14.6471346-23.2448346-14.6471346-37.7874886 0-14.5408531 5.5542596-27.8066351 14.6471346-37.7856872l-3.9989231-4.0053081c-10.1141827 11.0073934-16.3031635 25.6869195-16.3031635 41.7909953s6.1889808 30.7836016 16.3031635 41.7927966z"/><path d="m110.392933 113.479526c-9.963145 9.107393-23.2077792 14.670521-37.7254522 14.670521-14.5194712 0-27.7641058-5.563128-37.72725-14.670521l-3.9989231 4.005308c10.9916442 10.130332 25.6459711 16.330995 41.7261731 16.330995 16.0784038 0 30.7327312-6.200663 41.7243752-16.330995z"/><path d="m118.041772 30.2470995-3.998923 4.0053081c9.092875 9.9790521 14.645337 23.2430332 14.645337 37.7856872 0 14.5408531-5.552462 27.808436-14.645337 37.7874882l3.998923 4.003507c10.114183-11.009194 16.303164-25.6887203 16.303164-41.7909952 0-16.1040758-6.188981-30.7836019-16.303164-41.7909953"/><path d="m31.2915731 109.824863c-9.092875-9.9790526-14.6471346-23.2448346-14.6471346-37.7874886 0-14.5408531 5.5542596-27.8066351 14.6471346-37.7856872l-3.9989231-4.0053081c-10.1141827 11.0073934-16.3031635 25.6869195-16.3031635 41.7909953s6.1889808 30.7836016 16.3031635 41.7927966z"/><path d="m110.392933 113.479526c-9.963145 9.107393-23.2077792 14.670521-37.7254522 14.670521-14.5194712 0-27.7641058-5.563128-37.72725-14.670521l-3.9989231 4.005308c10.9916442 10.130332 25.6459711 16.330995 41.7261731 16.330995 16.0784038 0 30.7327312-6.200663 41.7243752-16.330995z"/></g><path d="m84.6351212 61.9554882c-.0071924 7.875545-12.3473943 6.9480568-16.2761924 6.9462559l.0089904-13.9159242c3.9287981.001801 16.2707981-1.244455 16.267202 6.9696683m3.22575 21.6509952c-.0017981 8.6553555-14.7999712 7.6630332-19.516327 7.6648341l.0107885-15.3440758c4.7181538.0036019 19.5109327-1.347109 19.5055385 7.6792417m9.7509711-24.7594313c-.7875577-8.255545-7.9025481-11.0272038-16.8857404-11.8196208l.0071923-11.4504266-6.9603557-.0036019-.0053943 11.1496683c-1.8304423-.001801-3.7022404.034218-5.5596538.070237l.0089904-11.2235072-6.9567596-.0036018-.0089904 11.4486255c-1.5067885.0288152-2.9866058.0558294-4.4304616.0558294v-.034218l-9.5999327-.0090047-.0035961 7.4451185s5.1407019-.0954503 5.0561923-.001801c2.8175865.0036019 3.7346058 1.6424645 4.0025192 3.0580095l-.0071923 13.0442654v.0486256l-.0125865 18.2760189c-.1258654.8896683-.6473077 2.3052133-2.6162019 2.3088152.0899038.0792417-5.0597885-.0054028-5.0597885-.0054028l-1.3881154 8.323981 9.0569135.0036019c1.684798.0036019 3.344423.0324171 4.9734807.0450237l-.0035961 11.5800948 6.9513654.005403.0071923-11.4594314c1.8520192.0396208 3.7058365.0576303 5.5578557.0558293l-.0071923 11.4072041 6.9585577.003602.0089904-11.5620857c11.7000866-.6663507 19.8921254-3.6145024 20.9152304-14.6182938.827116-8.8606635-3.3318362-12.817346-9.9739323-14.4165877 4.0366827-2.0548815 6.5611827-5.6801896 5.9750096-11.7223697" fill="#f09242"/><path d="m72.6667615 5.66614218c-36.5387211 0-66.26632688 29.77507112-66.26632688 66.37213272 0 36.5970611 29.72760578 66.3721331 66.26632688 66.3721331 36.5387215 0 66.2663265-29.775072 66.2663265-66.3721331 0-36.5970616-29.727605-66.37213272-66.2663265-66.37213272m0 138.41004782c-39.6601827 0-71.92307688-32.316209-71.92307688-72.0379151 0-39.7235071 32.26289418-72.03791471 71.92307688-72.03791471 39.6601825 0 71.9230765 32.31440761 71.9230765 72.03791471 0 39.7217061-32.262894 72.0379151-71.9230765 72.0379151" fill="#282138"/><path d="m72.6667615.00036019c-14.5194711 0-28.0410096 4.3456872-39.3581057 11.78720381l4.092423 4.0989573c10.2202693-6.46360187 22.3105385-10.22037912 35.2656827-10.22037912 36.5387215 0 66.2663265 29.77507112 66.2663265 66.37213272 0 12.9758294-3.74899 25.0854028-10.204086 35.3219901l4.090625 4.098958c7.431452-11.335166 11.770211-24.8782941 11.770211-39.4209481 0-39.7235071-32.264692-72.03791471-71.9230765-72.03791471" fill="#fff" opacity=".1"/><path d="m.00089904 93.9583318c9.39495192 31.2896682 38.36736536 54.0860662 72.66568266 54.0860662 37.1051153 0 67.9691063-26.677441 74.5662503-61.9237914-3.245529 1.9846446-6.31125 4.3690996-9.11625 7.1803792l-.005394.0036019c-18.9805 19.0090043-49.7509909 19.0090043-68.7296928 0-18.9787019-19.0090048-49.7491923-19.0090048-68.72969231 0z" fill="#0071bc" opacity=".75"/><path d="m117.527342 105.572104c-7.515961 2.216967-15.461663 2.580759-23.1160766 1.087773l25.1065476 25.146635c4.496991-3.544266 8.582222-7.587394 12.176577-12.04654z" fill="#fff" opacity=".15"/><path d="m106.958426 139.837659c1.943721-.988721 3.838894-2.058484 5.681923-3.203886l-43.2581346-43.3272043v-.0018009c-6.1404327-6.150237-13.5197404-10.2996209-21.3323846-12.4697631z" fill="#fff" opacity=".1"/><path d="m63.8274154 147.524284-58.34759617-58.4425589c-1.67580769 1.2894787-3.29407692 2.6870142-4.82783654 4.2232228l-.65090384.653744c.10968269.3691944.23734615.7311849.35242307 1.0985782l49.35181728 49.4288149c4.5365481 1.44256 9.2582981 2.472702 14.1220962 3.038199" fill="#fff" opacity=".2"/><path d="m74.9161558 147.994692c9.4327115-.275545 18.4302884-2.265592 26.6942502-5.685592l-63.0154041-63.1160194c-9.1324327-.6717536-18.4123077 1.2282464-26.6762692 5.7018009z" fill="#fff" opacity=".1"/><path d="m91.6361135 70.5688815c4.0366827-2.0548815 6.5611827-5.6801896 5.9750096-11.7205687-.7875577-8.255545-7.90075-11.0272038-16.8839423-11.8214218l.0053942-11.4504265-6.9603558-.0036019-.0053942 11.1496682c-1.8286442-.0018009-3.7004423.034218-5.5578558.070237l.0071923-11.2235071-6.9567596-.0036019-.0071923 11.4486256c-1.5067884.0288151-2.9884038.0576303-4.4304615.0576303v-.036019l-2.7654423-.0018009 14.307298 14.3319431.0053943-6.3807583c3.927.001801 16.2707981-1.242654 16.2654038 6.9696683-.0035961 4.7509004-4.4969904 6.2907109-8.9202596 6.7715639l23.5224423 23.56c1.2694424-1.9180094 2.0965574-4.3024644 2.3752594-7.3010426.827116-8.8606635-3.3354325-12.815545-9.9757305-14.4165877" fill="#fff" opacity=".2"/><path d="m40.7350731 19.226019 4.1193942 4.1277725c8.2028269-4.7202844 17.6966731-7.427109 27.8126539-7.427109 14.5194711 0 27.7623078 5.5631279 37.7254518 14.6687203l4.000721-4.0035071c-10.991644-10.1303317-25.647769-16.3309952-41.7261728-16.3309952-11.685702 0-22.6090193 3.2867298-31.9320481 8.9651185" fill="#fff" opacity=".1"/><path d="m114.043568 34.2518673c9.092875 9.9790521 14.647135 23.2448341 14.647135 37.7856872 0 10.1321327-2.704308 19.6429384-7.417067 27.8570616l4.119394 4.1259719c5.671134-9.3361141 8.952625-20.2804743 8.952625-31.9830335 0-16.1040758-6.188981-30.7818009-16.303164-41.7909953z" fill="#fff" opacity=".1"/></g></g></svg>

<?xml version="1.0" encoding="UTF-8"?>
<svg width="250px" height="250px" viewBox="0 0 250 250" version="1.1" xmlns="http://www.w3.org/2000/svg" xmlns:xlink="http://www.w3.org/1999/xlink">
    <!-- Generator: Sketch 52.2 (67145) - http://www.bohemiancoding.com/sketch -->
    <title>IMAGE</title>
    <desc>Created with Sketch.</desc>
    <defs>
        <linearGradient x1="39.1201566%" y1="10.3026589%" x2="144.40376%" y2="76.0352559%" id="linearGradient-1">
            <stop stop-color="#282138" offset="0%"></stop>
            <stop stop-color="#8C4398" offset="100%"></stop>
        </linearGradient>
        <path d="M130.643182,2.65685425 L247.315801,119.329473 C250.439995,122.453667 250.439995,127.518987 247.315801,130.643182 L130.643182,247.315801 C127.518987,250.439995 122.453667,250.439995 119.329473,247.315801 L2.65685425,130.643182 C-0.467340085,127.518987 -0.467340085,122.453667 2.65685425,119.329473 L119.329473,2.65685425 C122.453667,-0.467340085 127.518987,-0.467340085 130.643182,2.65685425 Z" id="path-2"></path>
        <linearGradient x1="45.1341622%" y1="44.7608927%" x2="13.2803679%" y2="12.6894419%" id="linearGradient-4">
            <stop stop-color="#000000" stop-opacity="0" offset="0%"></stop>
            <stop stop-color="#000000" offset="100%"></stop>
        </linearGradient>
    </defs>
    <g id="Designs" stroke="none" stroke-width="1" fill="none" fill-rule="evenodd">
        <g id="Home" transform="translate(-300.000000, -1041.000000)">
            <g id="WHY-DO-WE-NEED-WBTC?" transform="translate(250.000000, 923.000000)">
                <g id="1.-LIQUIDITY" transform="translate(50.000000, 118.000000)">
                    <g id="IMAGE">
                        <g id="Fill-1">
                            <mask id="mask-3" fill="white">
                                <use xlink:href="#path-2"></use>
                            </mask>
                            <g id="Mask" fill-rule="nonzero">
                                <use fill="#282138" xlink:href="#path-2"></use>
                                <use fill="url(#linearGradient-1)" xlink:href="#path-2"></use>
                            </g>
                            <polygon fill="url(#linearGradient-4)" opacity="0.6" mask="url(#mask-3)" points="300.765212 406.098673 49.9694423 154.900664 150.631183 47.4146919 401.42875 298.612701"></polygon>
                        </g>
                        <g id="Image---Liquidity" transform="translate(30.000000, 29.000000)">
                            <path d="M72.6667615,144.07619 C33.0065788,144.07619 0.743684615,111.759981 0.743684615,72.0382749 C0.743684615,32.3147678 33.0065788,0.000360189573 72.6667615,0.000360189573 C112.326944,0.000360189573 144.589838,32.3147678 144.589838,72.0382749 C144.589838,111.759981 112.326944,144.07619 72.6667615,144.07619" id="Fill-4" fill="#E6E6E6"></path>
                            <path d="M118.041772,30.2470995 L114.042849,34.2524076 C123.135724,44.2314597 128.688186,57.4954408 128.688186,72.0380948 C128.688186,86.5789479 123.135724,99.8465308 114.042849,109.825583 L118.041772,113.82909 C128.155955,102.819896 134.344936,88.1403697 134.344936,72.0380948 C134.344936,55.934019 128.155955,41.2544929 118.041772,30.2470995" id="Fill-6" fill="#5A5564"></path>
                            <path d="M34.9404106,30.5963033 C44.9035548,21.48891 58.1481894,15.9275829 72.6658625,15.9275829 C87.1853337,15.9275829 100.429968,21.48891 110.393112,30.5963033 L114.392036,26.5909953 C103.400391,16.4606635 88.7460644,10.2618009 72.6658625,10.2618009 C56.5874587,10.2618009 41.9331317,16.4606635 30.9414875,26.5909953 L34.9404106,30.5963033 Z" id="Fill-8" fill="#5A5564"></path>
                            <path d="M31.2915731,109.824863 C22.1986981,99.8458104 16.6444385,86.5800284 16.6444385,72.0373744 C16.6444385,57.4965213 22.1986981,44.2307393 31.2915731,34.2516872 L27.29265,30.2463791 C17.1784673,41.2537725 10.9894865,55.9332986 10.9894865,72.0373744 C10.9894865,88.1414502 17.1784673,102.820976 27.29265,113.830171 L31.2915731,109.824863 Z" id="Fill-10" fill="#5A5564"></path>
                            <path d="M110.392933,113.479526 C100.429788,122.586919 87.1851538,128.150047 72.6674808,128.150047 C58.1480096,128.150047 44.903375,122.586919 34.9402308,113.479526 L30.9413077,117.484834 C41.9329519,127.615166 56.5872788,133.815829 72.6674808,133.815829 C88.7458846,133.815829 103.400212,127.615166 114.391856,117.484834 L110.392933,113.479526 Z" id="Fill-12" fill="#5A5564"></path>
                            <path d="M118.041772,30.2470995 L114.042849,34.2524076 C123.135724,44.2314597 128.688186,57.4954408 128.688186,72.0380948 C128.688186,86.5789479 123.135724,99.8465308 114.042849,109.825583 L118.041772,113.82909 C128.155955,102.819896 134.344936,88.1403697 134.344936,72.0380948 C134.344936,55.934019 128.155955,41.2544929 118.041772,30.2470995" id="Fill-14" fill="#5A5564"></path>
                            <path d="M31.2915731,109.824863 C22.1986981,99.8458104 16.6444385,86.5800284 16.6444385,72.0373744 C16.6444385,57.4965213 22.1986981,44.2307393 31.2915731,34.2516872 L27.29265,30.2463791 C17.1784673,41.2537725 10.9894865,55.9332986 10.9894865,72.0373744 C10.9894865,88.1414502 17.1784673,102.820976 27.29265,113.830171 L31.2915731,109.824863 Z" id="Fill-16" fill="#5A5564"></path>
                            <path d="M110.392933,113.479526 C100.429788,122.586919 87.1851538,128.150047 72.6674808,128.150047 C58.1480096,128.150047 44.903375,122.586919 34.9402308,113.479526 L30.9413077,117.484834 C41.9329519,127.615166 56.5872788,133.815829 72.6674808,133.815829 C88.7458846,133.815829 103.400212,127.615166 114.391856,117.484834 L110.392933,113.479526 Z" id="Fill-18" fill="#5A5564"></path>
                            <path d="M84.6351212,61.9554882 C84.6279288,69.8310332 72.2877269,68.903545 68.3589288,68.9017441 L68.3679192,54.9858199 C72.2967173,54.9876209 84.6387173,53.7413649 84.6351212,61.9554882 M87.8608712,83.6064834 C87.8590731,92.2618389 73.0609,91.2695166 68.3445442,91.2713175 L68.3553327,75.9272417 C73.0734865,75.9308436 87.8662654,74.5801327 87.8608712,83.6064834 M97.6118423,58.8470521 C96.8242846,50.5915071 89.7092942,47.8198483 80.7261019,47.0274313 L80.7332942,35.5770047 L73.7729385,35.5734028 L73.7675442,46.7230711 C71.9371019,46.7212701 70.0653038,46.7572891 68.2078904,46.7933081 L68.2168808,35.5698009 L61.2601212,35.5661991 L61.2511308,47.0148246 C59.7443423,47.0436398 58.264525,47.070654 56.8206692,47.070654 L56.8206692,47.036436 L47.2207365,47.0274313 L47.2171404,54.4725498 C47.2171404,54.4725498 52.3578423,54.3770995 52.2733327,54.4707488 C55.0909192,54.4743507 56.0079385,56.1132133 56.2758519,57.5287583 L56.2686596,70.5730237 L56.2686596,70.6216493 L56.2560731,88.8976682 C56.1302077,89.7873365 55.6087654,91.2028815 53.6398712,91.2064834 C53.729775,91.2857251 48.5800827,91.2010806 48.5800827,91.2010806 L47.1919673,99.5250616 L56.2488808,99.5286635 C57.9336788,99.5322654 59.5933038,99.5610806 61.2223615,99.5736872 L61.2187654,111.153782 L68.1701308,111.159185 L68.1773231,99.6997536 C70.0293423,99.7393744 71.8831596,99.7573839 73.7351788,99.7555829 L73.7279865,111.162787 L80.6865442,111.166389 L80.6955346,99.6043033 C92.3956212,98.9379526 100.58766,95.9898009 101.610765,84.9860095 C102.437881,76.125346 98.2789288,72.1686635 91.6368327,70.5694218 C95.6735154,68.5145403 98.1980154,64.8892322 97.6118423,58.8470521" id="Fill-20" fill="#F09242"></path>
                            <path d="M72.6667615,5.66614218 C36.1280404,5.66614218 6.40043462,35.4412133 6.40043462,72.0382749 C6.40043462,108.635336 36.1280404,138.410408 72.6667615,138.410408 C109.205483,138.410408 138.933088,108.635336 138.933088,72.0382749 C138.933088,35.4412133 109.205483,5.66614218 72.6667615,5.66614218 M72.6667615,144.07619 C33.0065788,144.07619 0.743684615,111.759981 0.743684615,72.0382749 C0.743684615,32.3147678 33.0065788,0.000360189573 72.6667615,0.000360189573 C112.326944,0.000360189573 144.589838,32.3147678 144.589838,72.0382749 C144.589838,111.759981 112.326944,144.07619 72.6667615,144.07619" id="Fill-22" fill="#282138"></path>
                            <path d="M72.6667615,0.000360189573 C58.1472904,0.000360189573 44.6257519,4.34604739 33.3086558,11.787564 L37.4010788,15.8865213 C47.6213481,9.42291943 59.7116173,5.66614218 72.6667615,5.66614218 C109.205483,5.66614218 138.933088,35.4412133 138.933088,72.0382749 C138.933088,85.0141043 135.184098,97.1236777 128.729002,107.360265 L132.819627,111.459223 C140.251079,100.124057 144.589838,86.5809289 144.589838,72.0382749 C144.589838,32.3147678 112.325146,0.000360189573 72.6667615,0.000360189573" id="Fill-40" fill="#FFFFFF" opacity="0.1"></path>
                            <path d="M0.000899038462,93.9583318 C9.39585096,125.248 38.3682644,148.044398 72.6665817,148.044398 C109.771697,148.044398 140.635688,121.366957 147.232832,86.1206066 C143.987303,88.1052512 140.921582,90.4897062 138.116582,93.3009858 L138.111188,93.3045877 C119.130688,112.313592 88.3601971,112.313592 69.3814952,93.3045877 C50.4027933,74.2955829 19.6323029,74.2955829 0.651802885,93.3045877 L0.000899038462,93.9583318 Z" id="Fill-24" fill="#0071BC" opacity="0.75"></path>
                            <path d="M117.527342,105.572104 C110.011381,107.789071 102.065679,108.152863 94.4112654,106.659877 L119.517813,131.806512 C124.014804,128.262246 128.100035,124.219118 131.69439,119.759972 L117.527342,105.572104 Z" id="Fill-26" fill="#FFFFFF" opacity="0.15"></path>
                            <path d="M106.958426,139.837659 C108.902147,138.848938 110.79732,137.779175 112.640349,136.633773 L69.3822144,93.3065687 L69.3822144,93.3047678 C63.2417817,87.1545308 55.862474,83.0051469 48.0498298,80.8350047 L106.958426,139.837659 Z" id="Fill-28" fill="#FFFFFF" opacity="0.1"></path>
                            <path d="M63.8274154,147.524284 L5.47981923,89.0817251 C3.80401154,90.3712038 2.18574231,91.7687393 0.651982692,93.3049479 L0.00107884615,93.9586919 C0.110761538,94.3278863 0.238425,94.6898768 0.353501923,95.0572701 L49.7053192,144.486085 C54.2418673,145.928645 58.9636173,146.958787 63.8274154,147.524284" id="Fill-30" fill="#FFFFFF" opacity="0.2"></path>
                            <path d="M74.9161558,147.994692 C84.3488673,147.719147 93.3464442,145.7291 101.610406,142.3091 L38.5950019,79.1930806 C29.4625692,78.521327 20.1826942,80.421327 11.9187327,84.8948815 L74.9161558,147.994692 Z" id="Fill-32" fill="#FFFFFF" opacity="0.1"></path>
                            <path d="M91.6361135,70.5688815 C95.6727962,68.514 98.1972962,64.8886919 97.6111231,58.8483128 C96.8235654,50.5927678 89.7103731,47.821109 80.7271808,47.026891 L80.732575,35.5764645 L73.7722192,35.5728626 L73.766825,46.7225308 C71.9381808,46.7207299 70.0663827,46.7567488 68.2089692,46.7927678 L68.2161615,35.5692607 L61.2594019,35.5656588 L61.2522096,47.0142844 C59.7454212,47.0430995 58.2638058,47.0719147 56.8217481,47.0719147 L56.8217481,47.0358957 L54.0563058,47.0340948 L68.3636038,61.3660379 L68.3689981,54.9852796 C72.2959981,54.9870806 84.6397962,53.7426256 84.6344019,61.9549479 C84.6308058,66.7058483 80.1374115,68.2456588 75.7141423,68.7265118 L99.2365846,92.2865118 C100.506027,90.3685024 101.333142,87.9840474 101.611844,84.9854692 C102.43896,76.1248057 98.2764115,72.1699242 91.6361135,70.5688815" id="Fill-34" fill="#FFFFFF" opacity="0.2"></path>
                            <path d="M40.7350731,19.226019 L44.8544673,23.3537915 C53.0572942,18.6335071 62.5511404,15.9266825 72.6671212,15.9266825 C87.1865923,15.9266825 100.429429,21.4898104 110.392573,30.5954028 L114.393294,26.5918957 C103.40165,16.461564 88.745525,10.2609005 72.6671212,10.2609005 C60.9814192,10.2609005 50.0581019,13.5476303 40.7350731,19.226019" id="Fill-36" fill="#FFFFFF" opacity="0.1"></path>
                            <path d="M114.043568,34.2518673 C123.136443,44.2309194 128.690703,57.4967014 128.690703,72.0375545 C128.690703,82.1696872 125.986395,91.6804929 121.273636,99.8946161 L125.39303,104.020588 C131.064164,94.6844739 134.345655,83.7401137 134.345655,72.0375545 C134.345655,55.9334787 128.156674,41.2557536 118.042491,30.2465592 L114.043568,34.2518673 Z" id="Fill-38" fill="#FFFFFF" opacity="0.1"></path>
                        </g>
                    </g>
                </g>
            </g>
        </g>
    </g>
</svg>
